X: 1
T: Valse
T: Quoan v\`ols ganhar
C: Traditional
O: France - Gascony
R: waltz
S: Qu\'ebec City workshop, from Betsy Hooper
N: The 2nd strain has no initial repeat; it's not clear whether it should be repeated.
M: 3/4
L: 1/4
K: G
Bc |:\
"G"ddc | BGB | BAB | "D"d2c |\
ccB | AAc | ded |1 "G"B2G :|
[2 "G"G2B ||\
"G"AGG | "C"e2c | "D7"cf>e | "G"d2B |\
ded | "C"c2B | "D7"c/B/cd | "G"B2A |
GGG | "C"e2c | "D7"cf>e | "G"d2B |\
ded | "D7"fed | "C7"cBA !coda!| "G"GBc :|\
!coda![|] "G"GBd | G3 |]
